X:205
T: KEIN SCHOENER LAND IN DIESER ZEIT
N: B0243
O: Europa, Mitteleuropa, Deutschland
R: Tageszeiten - Lied, Abend, Sommer
M: 3/4
L: 1/8
K: A
EEE | A2c2BA | B2z
EEE | A2c2BA | B2z
cAB | cedcBA | Bdc2
B2 | A4G2 | A2z
cAB | cedcBA | Bdc2
B2 | A4G2 | A2z

@@@ Tune index: 2008
